lib/functional/health&wellness/first-aid-kit.svg

<svg xmlns="http://www.w3.org/2000/svg" fill="none" stroke="currentColor" aria-hidden="true" viewBox="0 0 32 32"><g id="Icon-FirstAidKit"><g clip-path="url(#clip0_12_4319)"><g id="size=md (32px)"><g id="FirstAidKit"><path id="Vector" stroke-linecap="round" stroke-linejoin="round" stroke-width="2" d="M27 9H5C4.44772 9 4 9.44772 4 10V26C4 26.5523 4.44772 27 5 27H27C27.5523 27 28 26.5523 28 26V10C28 9.44772 27.5523 9 27 9Z"/><path id="Vector_2" stroke-linecap="round" stroke-linejoin="round" stroke-width="2" d="M21 9V7C21 6.46957 20.7893 5.96086 20.4142 5.58579C20.0391 5.21071 19.5304 5 19 5H13C12.4696 5 11.9609 5.21071 11.5858 5.58579C11.2107 5.96086 11 6.46957 11 7V9"/><path id="Vector_3" stroke-linecap="round" stroke-linejoin="round" stroke-width="2" d="M16 14.5V21.5"/><path id="Vector_4" stroke-linecap="round" stroke-linejoin="round" stroke-width="2" d="M19.5 18H12.5"/></g></g></g></g><defs><clipPath id="clip0_12_4319"><rect width="32" height="32" fill="white" rx="5"/></clipPath></defs></svg>

<svg xmlns="http://www.w3.org/2000/svg" fill="none" stroke="currentColor" aria-hidden="true" viewBox="0 0 32 32"><g clip-path="url(#a)"><path stroke-linecap="round" stroke-linejoin="round" stroke-width="2" d="M27 9H5a1 1 0 0 0-1 1v16a1 1 0 0 0 1 1h22a1 1 0 0 0 1-1V10a1 1 0 0 0-1-1Zm-6 0V7a2 2 0 0 0-2-2h-6a2 2 0 0 0-2 2v2m5 5.5v7m3.5-3.5h-7"/></g><defs><clipPath id="a"><rect width="32" height="32" fill="#fff" rx="5"/></clipPath></defs></svg>
